X: 23664
T: Limfjord, The
R: reel
M: 4/4
K: Bminor
|:F2|B2FB- BFBd|c2ec dcBA|B2F B2 A2 G-|GF2 E2 F3|
B2FB- BFBd|c2ec dcBf-|f2gf edcd|B2 B2 B2:|
|:d2|f2df- fBdf|ggag fede|f2df- fBdf|edce dcBd|
f2df- fBdf|ggag fedf-|f2 gf edcd|B2 B2 B2:|

